localPackages/DesignSystem/Sources/DesignSystem/Resources/Assets.xcassets/IconSet/ic-trash-clock.imageset/ic-trash-clock.svg

<svg width="24" height="24" viewBox="0 0 24 24" fill="none" xmlns="http://www.w3.org/2000/svg">
<g id="ic-trash-clock">
<g id="Icon">
<path d="M18 15C18 14.5858 17.6642 14.25 17.25 14.25C16.8358 14.25 16.5 14.5858 16.5 15V17.25C16.5 17.4489 16.579 17.6397 16.7197 17.7803L18.2197 19.2803C18.5126 19.5732 18.9874 19.5732 19.2803 19.2803C19.5732 18.9874 19.5732 18.5126 19.2803 18.2197L18 16.9393V15Z" fill="#0F0F0F"/>
<path fill-rule="evenodd" clip-rule="evenodd" d="M7.5 0C7.21592 0 6.95622 0.160502 6.82918 0.41459L5.53647 3H0.75C0.335786 3 0 3.33579 0 3.75C0 4.16421 0.335786 4.5 0.75 4.5H2.65832L3.31069 18.8522C3.36531 20.0538 4.35545 21 5.55837 21H11.625V20.9825C12.8343 22.8013 14.9022 24 17.25 24C20.9779 24 24 20.9779 24 17.25C24 13.5221 20.9779 10.5 17.25 10.5C17.137 10.5 17.0247 10.5028 16.913 10.5083L17.2134 4.5H18.75C19.1642 4.5 19.5 4.16421 19.5 3.75C19.5 3.33579 19.1642 3 18.75 3H13.9635L12.6708 0.41459C12.5438 0.160502 12.2841 0 12 0H7.5ZM10.5 17.25C10.5 18.0389 10.6353 18.7962 10.8841 19.5H5.55837C5.1574 19.5 4.82735 19.1846 4.80914 18.7841L4.15987 4.5H15.7116L15.3987 10.757C12.5709 11.5618 10.5 14.164 10.5 17.25ZM12.2865 3L11.5365 1.5H7.96353L7.21353 3H12.2865ZM17.25 12C14.3505 12 12 14.3505 12 17.25C12 20.1495 14.3505 22.5 17.25 22.5C20.1495 22.5 22.5 20.1495 22.5 17.25C22.5 14.3505 20.1495 12 17.25 12Z" fill="#0F0F0F"/>
</g>
</g>
</svg>

<svg xmlns="http://www.w3.org/2000/svg" width="24" height="24" viewBox="0 0 24 24">
  <g class="ic-trash-clock">
    <g class="Icon">
      <path d="M18 15a.75.75 0 0 0-1.5 0v2.25c0 .199.079.39.22.53l1.5 1.5a.75.75 0 1 0 1.06-1.06L18 16.94V15Z"/>
      <path fill-rule="evenodd" d="M7.5 0a.75.75 0 0 0-.67.415L5.535 3H.75a.75.75 0 0 0 0 1.5h1.908l.653 14.352A2.25 2.25 0 0 0 5.558 21h6.067v-.017a6.75 6.75 0 1 0 5.288-10.474l.3-6.009h1.537a.75.75 0 0 0 0-1.5h-4.787L12.671.415A.75.75 0 0 0 12 0H7.5Zm3 17.25c0 .789.135 1.546.384 2.25H5.558a.75.75 0 0 1-.749-.716L4.16 4.5h11.553l-.313 6.257a6.753 6.753 0 0 0-4.9 6.493ZM12.287 3l-.75-1.5H7.963L7.214 3h5.072Zm4.963 9a5.25 5.25 0 1 0 0 10.5 5.25 5.25 0 0 0 0-10.5Z"/>
    </g>
  </g>
</svg>
